Newaita-dark/.places-gray/24/folder-images.svg

<svg xmlns="http://www.w3.org/2000/svg" xmlns:xlink="http://www.w3.org/1999/xlink" width="24px" height="24px" viewBox="0 0 24 24" version="1.1">
<defs>
<linearGradient id="linear0" gradientUnits="userSpaceOnUse" x1="254" y1="233.5" x2="254" y2="254.667007" gradientTransform="matrix(0.0468787,0,0,0.0468787,0,10.07925)">
<stop offset="0" style="stop-color:rgb(0%,0%,0%);stop-opacity:0.275;"/>
<stop offset="1" style="stop-color:rgb(0%,0%,0%);stop-opacity:0;"/>
</linearGradient>
<radialGradient id="radial0" gradientUnits="userSpaceOnUse" cx="450.908997" cy="189.578995" fx="450.908997" fy="189.578995" r="21.167" gradientTransform="matrix(0,-0.0585975,-0.10548,0,40.586251,47.696251)">
<stop offset="0" style="stop-color:rgb(0%,0%,0%);stop-opacity:0.314;"/>
<stop offset="0.222" style="stop-color:rgb(0%,0%,0%);stop-opacity:0.275;"/>
<stop offset="1" style="stop-color:rgb(0%,0%,0%);stop-opacity:0;"/>
</radialGradient>
<radialGradient id="radial1" gradientUnits="userSpaceOnUse" cx="450.908997" cy="189.578995" fx="450.908997" fy="189.578995" r="21.167" gradientTransform="matrix(0,0.0585975,0.10548,0,-16.7715,-5.645625)">
<stop offset="0" style="stop-color:rgb(0%,0%,0%);stop-opacity:0.314;"/>
<stop offset="0.222" style="stop-color:rgb(0%,0%,0%);stop-opacity:0.275;"/>
<stop offset="1" style="stop-color:rgb(0%,0%,0%);stop-opacity:0;"/>
</radialGradient>
<radialGradient id="radial2" gradientUnits="userSpaceOnUse" cx="450.908997" cy="189.578995" fx="450.908997" fy="189.578995" r="21.167" gradientTransform="matrix(0,-0.0585975,0.10548,0,-16.7715,47.696251)">
<stop offset="0" style="stop-color:rgb(0%,0%,0%);stop-opacity:0.314;"/>
<stop offset="0.222" style="stop-color:rgb(0%,0%,0%);stop-opacity:0.275;"/>
<stop offset="1" style="stop-color:rgb(0%,0%,0%);stop-opacity:0;"/>
</radialGradient>
<radialGradient id="radial3" gradientUnits="userSpaceOnUse" cx="450.908997" cy="189.578995" fx="450.908997" fy="189.578995" r="21.167" gradientTransform="matrix(0,0.0585975,-0.10548,0,40.586251,-5.645625)">
<stop offset="0" style="stop-color:rgb(0%,0%,0%);stop-opacity:0.314;"/>
<stop offset="0.222" style="stop-color:rgb(0%,0%,0%);stop-opacity:0.275;"/>
<stop offset="1" style="stop-color:rgb(0%,0%,0%);stop-opacity:0;"/>
</radialGradient>
<linearGradient id="linear1" gradientUnits="userSpaceOnUse" x1="254" y1="-147.5" x2="254" y2="-31.083" gradientTransform="matrix(0.0468787,0,0,0.0468787,0,10.07925)">
<stop offset="0" style="stop-color:rgb(64.313728%,64.313728%,64.313728%);stop-opacity:0;"/>
<stop offset="1" style="stop-color:rgb(100%,100%,100%);stop-opacity:0.196;"/>
</linearGradient>
<linearGradient id="linear2" gradientUnits="userSpaceOnUse" x1="254" y1="233.5" x2="254" y2="-105.167" gradientTransform="matrix(0.0468787,0,0,0.0468787,0,10.07925)">
<stop offset="0" style="stop-color:rgb(34.509805%,34.509805%,34.509805%);stop-opacity:0;"/>
<stop offset="1" style="stop-color:rgb(98.039216%,98.039216%,98.039216%);stop-opacity:0.196;"/>
</linearGradient>
<linearGradient id="linear3" gradientUnits="userSpaceOnUse" x1="254" y1="-147.5" x2="254" y2="233.5" gradientTransform="matrix(0.0468787,0,0,0.0468787,0,10.07925)">
<stop offset="0" style="stop-color:rgb(64.313728%,64.313728%,64.313728%);stop-opacity:0;"/>
<stop offset="1" style="stop-color:rgb(100%,100%,100%);stop-opacity:0.196;"/>
</linearGradient>
</defs>
<g id="surface1">
<path style=" stroke:none;fill-rule:nonzero;fill:url(#linear0);" d="M 2.976562 21.023438 L 20.835938 21.023438 L 20.835938 22.019531 L 2.976562 22.019531 Z M 2.976562 21.023438 "/>
<path style=" stroke:none;fill-rule:nonzero;fill:url(#radial0);" d="M 20.835938 21.023438 L 22.820312 21.023438 L 22.820312 20.035156 L 20.835938 20.035156 Z M 20.835938 21.023438 "/>
<path style=" stroke:none;fill-rule:nonzero;fill:url(#radial1);" d="M 2.976562 21.023438 L 0.992188 21.023438 L 0.992188 22.019531 L 2.976562 22.019531 Z M 2.976562 21.023438 "/>
<path style=" stroke:none;fill-rule:nonzero;fill:url(#radial2);" d="M 2.976562 21.023438 L 0.992188 21.023438 L 0.992188 20.035156 L 2.976562 20.035156 Z M 2.976562 21.023438 "/>
<path style=" stroke:none;fill-rule:nonzero;fill:url(#radial3);" d="M 20.835938 21.023438 L 22.820312 21.023438 L 22.820312 22.019531 L 20.835938 22.019531 Z M 20.835938 21.023438 "/>
<path style=" stroke:none;fill-rule:nonzero;fill:rgb(45.882353%,45.882353%,45.882353%);fill-opacity:1;" d="M 5.457031 3.164062 L 21.582031 3.164062 C 21.84375 3.164062 22.097656 3.269531 22.285156 3.453125 C 22.46875 3.640625 22.574219 3.894531 22.574219 4.15625 L 22.574219 7.878906 C 22.574219 8.425781 22.128906 8.871094 21.582031 8.871094 L 5.457031 8.871094 C 4.910156 8.871094 4.464844 8.425781 4.464844 7.878906 L 4.464844 4.15625 C 4.464844 3.609375 4.910156 3.164062 5.457031 3.164062 Z M 5.457031 3.164062 "/>
<path style=" stroke:none;fill-rule:nonzero;fill:url(#linear1);" d="M 5.457031 3.164062 L 21.582031 3.164062 C 21.84375 3.164062 22.097656 3.269531 22.285156 3.453125 C 22.46875 3.640625 22.574219 3.894531 22.574219 4.15625 L 22.574219 7.878906 C 22.574219 8.425781 22.128906 8.871094 21.582031 8.871094 L 5.457031 8.871094 C 4.910156 8.871094 4.464844 8.425781 4.464844 7.878906 L 4.464844 4.15625 C 4.464844 3.609375 4.910156 3.164062 5.457031 3.164062 Z M 5.457031 3.164062 "/>
<path style=" stroke:none;fill-rule:nonzero;fill:rgb(90.196079%,90.196079%,90.196079%);fill-opacity:0.588;" d="M 5.457031 3.164062 C 5.195312 3.164062 4.941406 3.269531 4.753906 3.453125 C 4.570312 3.640625 4.464844 3.894531 4.464844 4.15625 L 4.464844 4.28125 C 4.464844 4.015625 4.570312 3.765625 4.753906 3.578125 C 4.941406 3.390625 5.195312 3.289062 5.457031 3.289062 L 21.582031 3.289062 C 21.84375 3.289062 22.097656 3.390625 22.285156 3.578125 C 22.46875 3.765625 22.574219 4.015625 22.574219 4.28125 L 22.574219 4.15625 C 22.574219 3.894531 22.472656 3.640625 22.285156 3.453125 C 22.097656 3.265625 21.84375 3.164062 21.582031 3.164062 Z M 5.457031 3.164062 "/>
<path style=" stroke:none;fill-rule:nonzero;fill:rgb(12.941177%,12.941177%,12.941177%);fill-opacity:1;" d="M 5.457031 3.09375 C 4.871094 3.09375 4.394531 3.570312 4.394531 4.15625 L 4.394531 7.878906 C 4.394531 8.160156 4.507812 8.429688 4.707031 8.628906 C 4.90625 8.828125 5.175781 8.941406 5.457031 8.941406 L 21.582031 8.941406 C 21.863281 8.941406 22.132812 8.828125 22.332031 8.628906 C 22.53125 8.429688 22.644531 8.160156 22.644531 7.878906 L 22.644531 4.15625 C 22.644531 3.570312 22.167969 3.09375 21.582031 3.09375 Z M 5.457031 3.234375 L 21.582031 3.234375 C 21.828125 3.234375 22.0625 3.332031 22.234375 3.503906 C 22.40625 3.675781 22.503906 3.910156 22.503906 4.15625 L 22.503906 7.878906 C 22.503906 8.121094 22.40625 8.359375 22.234375 8.53125 C 22.0625 8.703125 21.824219 8.800781 21.582031 8.800781 L 5.457031 8.800781 C 5.214844 8.800781 4.976562 8.703125 4.804688 8.53125 C 4.632812 8.359375 4.535156 8.121094 4.535156 7.878906 L 4.535156 4.15625 C 4.535156 3.914062 4.632812 3.675781 4.804688 3.503906 C 4.976562 3.332031 5.210938 3.234375 5.457031 3.234375 Z M 5.457031 3.234375 "/>
<path style=" stroke:none;fill-rule:nonzero;fill:rgb(74.117649%,74.117649%,74.117649%);fill-opacity:1;" d="M 1.984375 5.148438 C 1.722656 5.148438 1.46875 5.253906 1.28125 5.4375 C 1.097656 5.625 0.992188 5.878906 0.992188 6.140625 L 0.992188 20.035156 C 0.992188 20.296875 1.097656 20.550781 1.28125 20.734375 C 1.46875 20.921875 1.722656 21.023438 1.984375 21.023438 L 21.832031 21.023438 C 22.09375 21.023438 22.347656 20.921875 22.53125 20.734375 C 22.71875 20.550781 22.824219 20.296875 22.820312 20.035156 L 22.820312 7.628906 L 9.425781 7.628906 C 9.164062 7.628906 8.910156 7.523438 8.722656 7.339844 C 8.539062 7.152344 8.433594 6.898438 8.433594 6.636719 L 8.433594 5.148438 Z M 1.984375 5.148438 "/>
<path style=" stroke:none;fill-rule:nonzero;fill:url(#linear2);" d="M 1.984375 5.148438 C 1.722656 5.148438 1.46875 5.253906 1.28125 5.4375 C 1.097656 5.625 0.992188 5.878906 0.992188 6.140625 L 0.992188 20.035156 C 0.992188 20.296875 1.097656 20.550781 1.28125 20.734375 C 1.46875 20.921875 1.722656 21.023438 1.984375 21.023438 L 21.832031 21.023438 C 22.09375 21.023438 22.347656 20.921875 22.53125 20.734375 C 22.71875 20.550781 22.824219 20.296875 22.820312 20.035156 L 22.820312 7.628906 L 9.425781 7.628906 C 9.164062 7.628906 8.910156 7.523438 8.722656 7.339844 C 8.539062 7.152344 8.433594 6.898438 8.433594 6.636719 L 8.433594 5.148438 Z M 1.984375 5.148438 "/>
<path style=" stroke:none;fill-rule:nonzero;fill:rgb(0%,0%,0%);fill-opacity:0.196;" d="M 1.984375 21.023438 C 1.722656 21.023438 1.46875 20.921875 1.28125 20.734375 C 1.097656 20.550781 0.992188 20.296875 0.992188 20.035156 L 0.992188 19.910156 C 0.992188 20.171875 1.097656 20.425781 1.28125 20.613281 C 1.46875 20.796875 1.722656 20.902344 1.984375 20.902344 L 21.832031 20.902344 C 22.09375 20.902344 22.347656 20.796875 22.53125 20.609375 C 22.71875 20.425781 22.824219 20.171875 22.820312 19.910156 L 22.820312 20.035156 C 22.824219 20.296875 22.71875 20.550781 22.53125 20.734375 C 22.347656 20.921875 22.09375 21.023438 21.832031 21.023438 Z M 1.984375 21.023438 "/>
<path style=" stroke:none;fill-rule:nonzero;fill:rgb(90.196079%,90.196079%,90.196079%);fill-opacity:0.937;" d="M 1.984375 5.148438 C 1.722656 5.148438 1.46875 5.253906 1.28125 5.4375 C 1.097656 5.625 0.992188 5.878906 0.992188 6.140625 L 0.992188 6.265625 C 0.992188 6 1.097656 5.75 1.28125 5.5625 C 1.46875 5.375 1.722656 5.273438 1.984375 5.273438 L 8.433594 5.273438 L 8.433594 5.148438 Z M 9.363281 7.691406 C 9.101562 7.691406 8.847656 7.589844 8.664062 7.402344 C 8.476562 7.214844 8.371094 6.960938 8.371094 6.699219 L 8.371094 6.574219 C 8.371094 6.839844 8.476562 7.089844 8.664062 7.277344 C 8.847656 7.464844 9.101562 7.566406 9.363281 7.566406 L 22.820312 7.566406 L 22.820312 7.691406 Z M 9.363281 7.691406 "/>
<path style=" stroke:none;fill-rule:nonzero;fill:rgb(12.941177%,12.941177%,12.941177%);fill-opacity:1;" d="M 1.984375 5.078125 C 1.703125 5.078125 1.433594 5.191406 1.234375 5.390625 C 1.035156 5.589844 0.921875 5.859375 0.921875 6.140625 L 0.921875 20.035156 C 0.921875 20.316406 1.035156 20.585938 1.234375 20.785156 C 1.433594 20.984375 1.703125 21.09375 1.984375 21.09375 L 21.832031 21.09375 C 22.113281 21.09375 22.382812 20.984375 22.582031 20.785156 C 22.78125 20.585938 22.894531 20.316406 22.894531 20.035156 L 22.894531 7.488281 L 9.425781 7.488281 C 9.183594 7.488281 8.945312 7.394531 8.773438 7.21875 C 8.601562 7.046875 8.503906 6.8125 8.503906 6.566406 L 8.503906 5.078125 Z M 1.984375 5.21875 L 8.363281 5.21875 L 8.363281 6.566406 C 8.363281 6.847656 8.476562 7.117188 8.675781 7.316406 C 8.875 7.515625 9.144531 7.628906 9.425781 7.628906 L 22.753906 7.628906 L 22.753906 20.035156 C 22.753906 20.277344 22.65625 20.511719 22.484375 20.6875 C 22.308594 20.859375 22.074219 20.957031 21.832031 20.953125 L 1.984375 20.953125 C 1.738281 20.957031 1.503906 20.859375 1.332031 20.6875 C 1.160156 20.511719 1.0625 20.277344 1.0625 20.035156 L 1.0625 6.140625 C 1.0625 5.894531 1.160156 5.660156 1.332031 5.488281 C 1.503906 5.316406 1.738281 5.21875 1.984375 5.21875 Z M 1.984375 5.21875 "/>
<path style=" stroke:none;fill-rule:nonzero;fill:rgb(45.882353%,45.882353%,45.882353%);fill-opacity:1;" d="M 10.417969 9.542969 C 10.15625 9.542969 9.902344 9.648438 9.714844 9.832031 C 9.53125 10.019531 9.425781 10.273438 9.425781 10.535156 C 9.425781 10.800781 9.53125 11.054688 9.71875 11.238281 C 9.902344 11.425781 10.15625 11.527344 10.417969 11.527344 C 10.683594 11.527344 10.933594 11.425781 11.121094 11.238281 C 11.308594 11.050781 11.410156 10.800781 11.410156 10.535156 C 11.414062 10.273438 11.308594 10.019531 11.121094 9.832031 C 10.9375 9.648438 10.683594 9.542969 10.417969 9.542969 Z M 13.394531 11.527344 C 12.15625 11.527344 12.15625 15 11.410156 15 C 10.667969 15 10.417969 13.015625 9.921875 13.015625 C 9.179688 13.015625 8.433594 15.488281 8.433594 16.988281 C 8.433594 17.261719 8.65625 17.480469 8.929688 17.480469 L 14.882812 17.480469 C 15.015625 17.480469 15.140625 17.429688 15.234375 17.335938 C 15.328125 17.246094 15.382812 17.117188 15.382812 16.988281 C 15.414062 15.042969 14.636719 11.527344 13.394531 11.527344 Z M 13.394531 11.527344 "/>
<path style=" stroke:none;fill-rule:nonzero;fill:url(#linear3);" d="M 10.417969 9.542969 C 10.15625 9.542969 9.902344 9.648438 9.714844 9.832031 C 9.53125 10.019531 9.425781 10.273438 9.425781 10.535156 C 9.425781 10.800781 9.53125 11.054688 9.71875 11.238281 C 9.902344 11.425781 10.15625 11.527344 10.417969 11.527344 C 10.683594 11.527344 10.933594 11.425781 11.121094 11.238281 C 11.308594 11.050781 11.410156 10.800781 11.410156 10.535156 C 11.414062 10.273438 11.308594 10.019531 11.121094 9.832031 C 10.9375 9.648438 10.683594 9.542969 10.417969 9.542969 Z M 13.394531 11.527344 C 12.15625 11.527344 12.15625 15 11.410156 15 C 10.667969 15 10.417969 13.015625 9.921875 13.015625 C 9.179688 13.015625 8.433594 15.488281 8.433594 16.988281 C 8.433594 17.261719 8.65625 17.480469 8.929688 17.480469 L 14.882812 17.480469 C 15.015625 17.480469 15.140625 17.429688 15.234375 17.335938 C 15.328125 17.246094 15.382812 17.117188 15.382812 16.988281 C 15.414062 15.042969 14.636719 11.527344 13.394531 11.527344 Z M 13.394531 11.527344 "/>
<path style=" stroke:none;fill-rule:nonzero;fill:rgb(12.941177%,12.941177%,12.941177%);fill-opacity:1;" d="M 10.417969 9.472656 C 9.832031 9.472656 9.355469 9.949219 9.355469 10.535156 C 9.355469 10.820312 9.46875 11.089844 9.667969 11.289062 C 9.867188 11.488281 10.136719 11.597656 10.417969 11.597656 C 10.699219 11.597656 10.972656 11.488281 11.171875 11.289062 C 11.371094 11.089844 11.480469 10.820312 11.480469 10.535156 C 11.480469 10.253906 11.371094 9.984375 11.171875 9.785156 C 10.972656 9.585938 10.703125 9.472656 10.417969 9.472656 Z M 10.417969 9.613281 C 10.664062 9.613281 10.898438 9.710938 11.070312 9.882812 C 11.246094 10.054688 11.339844 10.292969 11.339844 10.535156 C 11.339844 10.78125 11.246094 11.015625 11.070312 11.1875 C 10.898438 11.363281 10.664062 11.457031 10.417969 11.457031 C 10.175781 11.460938 9.941406 11.363281 9.765625 11.1875 C 9.59375 11.015625 9.496094 10.78125 9.496094 10.535156 C 9.496094 10.292969 9.59375 10.054688 9.765625 9.882812 C 9.9375 9.710938 10.175781 9.613281 10.417969 9.613281 Z M 13.394531 11.457031 C 13.054688 11.457031 12.796875 11.699219 12.605469 12.035156 C 12.414062 12.371094 12.273438 12.808594 12.148438 13.246094 C 12.023438 13.679688 11.917969 14.113281 11.792969 14.433594 C 11.734375 14.59375 11.671875 14.722656 11.605469 14.808594 C 11.535156 14.894531 11.476562 14.929688 11.410156 14.929688 C 11.257812 14.929688 11.121094 14.828125 10.992188 14.648438 C 10.863281 14.472656 10.746094 14.226562 10.640625 13.980469 C 10.53125 13.734375 10.429688 13.484375 10.320312 13.292969 C 10.273438 13.203125 10.214844 13.125 10.148438 13.050781 C 10.085938 12.992188 10.007812 12.945312 9.921875 12.945312 C 9.695312 12.945312 9.496094 13.125 9.316406 13.386719 C 9.136719 13.652344 8.972656 14.011719 8.832031 14.417969 C 8.550781 15.230469 8.363281 16.226562 8.363281 16.988281 C 8.363281 17.300781 8.617188 17.550781 8.929688 17.550781 L 14.882812 17.550781 C 15.195312 17.550781 15.449219 17.296875 15.449219 16.988281 C 15.46875 16.003906 15.28125 14.636719 14.933594 13.507812 C 14.757812 12.945312 14.546875 12.4375 14.292969 12.070312 C 14.039062 11.699219 13.738281 11.457031 13.394531 11.457031 Z M 13.394531 11.597656 C 13.671875 11.597656 13.9375 11.796875 14.175781 12.148438 C 14.417969 12.496094 14.628906 12.992188 14.800781 13.550781 C 15.140625 14.664062 15.328125 16.023438 15.308594 16.984375 L 15.308594 16.988281 C 15.308594 17.222656 15.121094 17.410156 14.882812 17.410156 L 8.929688 17.410156 C 8.695312 17.410156 8.503906 17.222656 8.503906 16.988281 C 8.503906 16.25 8.691406 15.261719 8.964844 14.464844 C 9.105469 14.0625 9.265625 13.714844 9.433594 13.464844 C 9.605469 13.21875 9.777344 13.085938 9.921875 13.085938 C 9.960938 13.085938 10.003906 13.105469 10.050781 13.152344 C 10.097656 13.199219 10.148438 13.273438 10.199219 13.359375 C 10.300781 13.539062 10.402344 13.789062 10.511719 14.039062 C 10.617188 14.285156 10.734375 14.539062 10.878906 14.734375 C 11.019531 14.925781 11.195312 15.070312 11.410156 15.070312 C 11.53125 15.070312 11.632812 15 11.714844 14.894531 C 11.796875 14.789062 11.863281 14.648438 11.925781 14.484375 C 12.054688 14.152344 12.160156 13.714844 12.285156 13.285156 C 12.410156 12.851562 12.546875 12.421875 12.726562 12.105469 C 12.910156 11.789062 13.117188 11.597656 13.394531 11.597656 Z M 13.394531 11.597656 "/>
</g>
</svg>

<svg xmlns="http://www.w3.org/2000/svg" width="32" height="32" viewBox="0 0 24 24"><defs><linearGradient id="a" gradientUnits="userSpaceOnUse" x1="254" y1="233.5" x2="254" y2="254.667" gradientTransform="matrix(.04688 0 0 .04688 0 10.08)"><stop offset="0" stop-opacity=".275"/><stop offset="1" stop-opacity="0"/></linearGradient><radialGradient id="b" gradientUnits="userSpaceOnUse" cx="450.909" cy="189.579" fx="450.909" fy="189.579" r="21.167" gradientTransform="matrix(0 -.0586 -.10548 0 40.586 47.697)"><stop offset="0" stop-opacity=".314"/><stop offset=".222" stop-opacity=".275"/><stop offset="1" stop-opacity="0"/></radialGradient><radialGradient id="c" gradientUnits="userSpaceOnUse" cx="450.909" cy="189.579" fx="450.909" fy="189.579" r="21.167" gradientTransform="matrix(0 .0586 .10548 0 -16.772 -5.646)"><stop offset="0" stop-opacity=".314"/><stop offset=".222" stop-opacity=".275"/><stop offset="1" stop-opacity="0"/></radialGradient><radialGradient id="d" gradientUnits="userSpaceOnUse" cx="450.909" cy="189.579" fx="450.909" fy="189.579" r="21.167" gradientTransform="matrix(0 -.0586 .10548 0 -16.772 47.697)"><stop offset="0" stop-opacity=".314"/><stop offset=".222" stop-opacity=".275"/><stop offset="1" stop-opacity="0"/></radialGradient><radialGradient id="e" gradientUnits="userSpaceOnUse" cx="450.909" cy="189.579" fx="450.909" fy="189.579" r="21.167" gradientTransform="matrix(0 .0586 -.10548 0 40.586 -5.646)"><stop offset="0" stop-opacity=".314"/><stop offset=".222" stop-opacity=".275"/><stop offset="1" stop-opacity="0"/></radialGradient><linearGradient id="f" gradientUnits="userSpaceOnUse" x1="254" y1="-147.5" x2="254" y2="-31.083" gradientTransform="matrix(.04688 0 0 .04688 0 10.08)"><stop offset="0" stop-color="#a4a4a4" stop-opacity="0"/><stop offset="1" stop-color="#fff" stop-opacity=".196"/></linearGradient><linearGradient id="g" gradientUnits="userSpaceOnUse" x1="254" y1="233.5" x2="254" y2="-105.167" gradientTransform="matrix(.04688 0 0 .04688 0 10.08)"><stop offset="0" stop-color="#585858" stop-opacity="0"/><stop offset="1" stop-color="#fafafa" stop-opacity=".196"/></linearGradient><linearGradient id="h" gradientUnits="userSpaceOnUse" x1="254" y1="-147.5" x2="254" y2="233.5" gradientTransform="matrix(.04688 0 0 .04688 0 10.08)"><stop offset="0" stop-color="#a4a4a4" stop-opacity="0"/><stop offset="1" stop-color="#fff" stop-opacity=".196"/></linearGradient></defs><path d="M2.977 21.027H20.84v.993H2.977zm0 0" fill="url(#a)"/><path d="M20.84 21.027h1.984v-.996H20.84zm0 0" fill="url(#b)"/><path d="M2.977 21.027H.992v.993h1.985zm0 0" fill="url(#c)"/><path d="M2.977 21.027H.992v-.996h1.985zm0 0" fill="url(#d)"/><path d="M20.84 21.027h1.984v.993H20.84zm0 0" fill="url(#e)"/><path d="M5.457 3.164h16.125c.547 0 .992.445.992.992V7.88a.994.994 0 0 1-.992.992H5.457a.994.994 0 0 1-.992-.992V4.156c0-.547.445-.992.992-.992zm0 0" fill="#757575"/><path d="M5.457 3.164h16.125c.547 0 .992.445.992.992V7.88a.994.994 0 0 1-.992.992H5.457a.994.994 0 0 1-.992-.992V4.156c0-.547.445-.992.992-.992zm0 0" fill="url(#f)"/><path d="M5.457 3.164a.989.989 0 0 0-.992.992v.125c0-.55.441-.992.992-.992h16.125c.55 0 .992.441.992.992v-.125a.989.989 0 0 0-.992-.992zm0 0" fill="#e6e6e6" fill-opacity=".588"/><path d="M5.457 3.094c-.586 0-1.062.476-1.062 1.062V7.88c0 .586.476 1.062 1.062 1.062h16.125c.586 0 1.063-.476 1.063-1.062V4.156c0-.586-.477-1.062-1.063-1.062zm0 .14h16.125c.512 0 .922.41.922.922V7.88c0 .512-.41.922-.922.922H5.457a.919.919 0 0 1-.922-.922V4.156c0-.511.41-.922.922-.922zm0 0" fill="#212121"/><path d="M1.984 5.148a.989.989 0 0 0-.992.993v13.89c0 .551.442.996.992.996h19.848a.994.994 0 0 0 .992-.996V7.63H9.426a.991.991 0 0 1-.992-.992V5.148zm0 0" fill="#bdbdbd"/><path d="M1.984 5.148a.989.989 0 0 0-.992.993v13.89c0 .551.442.996.992.996h19.848a.994.994 0 0 0 .992-.996V7.63H9.426a.991.991 0 0 1-.992-.992V5.148zm0 0" fill="url(#g)"/><path d="M1.984 21.027a.992.992 0 0 1-.992-.996v-.12c0 .546.442.991.992.991h19.848a.994.994 0 0 0 .992-.992v.121c0 .551-.445.996-.992.996zm0 0" fill-opacity=".196"/><path d="M1.984 5.148a.989.989 0 0 0-.992.993v.125c0-.551.442-.993.992-.993h6.45v-.125zm0 0M9.363 7.691a.991.991 0 0 1-.992-.992v-.125c0 .551.445.996.992.992h13.461v.125zm0 0" fill="#e6e6e6" fill-opacity=".937"/><path d="M1.984 5.078c-.586 0-1.062.477-1.062 1.063v13.89c0 .59.476 1.067 1.062 1.067h19.848c.586 0 1.063-.477 1.063-1.067V7.488H9.425a.919.919 0 0 1-.921-.922V5.078zm0 .14h6.38v1.348c0 .59.476 1.063 1.062 1.063h13.328V20.03a.92.92 0 0 1-.922.926H1.984a.92.92 0 0 1-.921-.926V6.141c0-.512.41-.922.921-.922zm0 0" fill="#212121"/><path d="M10.418 9.543a.991.991 0 1 0 0 1.984c.55 0 .992-.441.992-.992a.991.991 0 0 0-.992-.992zm2.977 1.984c-1.239 0-1.239 3.473-1.985 3.473-.742 0-.992-1.984-1.488-1.984-.742 0-1.488 2.472-1.488 3.968 0 .278.222.496.496.496h5.953a.492.492 0 0 0 .496-.496c.039-1.941-.742-5.457-1.984-5.457zm0 0" fill="#757575"/><path d="M10.418 9.543a.991.991 0 1 0 0 1.984c.55 0 .992-.441.992-.992a.991.991 0 0 0-.992-.992zm2.977 1.984c-1.239 0-1.239 3.473-1.985 3.473-.742 0-.992-1.984-1.488-1.984-.742 0-1.488 2.472-1.488 3.968 0 .278.222.496.496.496h5.953a.492.492 0 0 0 .496-.496c.039-1.941-.742-5.457-1.984-5.457zm0 0" fill="url(#h)"/><path d="M10.418 9.473a1.064 1.064 0 1 0 .002 2.127 1.064 1.064 0 0 0-.002-2.127zm0 .14c.512 0 .922.41.922.922s-.41.922-.922.922a.919.919 0 0 1-.922-.922c0-.512.41-.922.922-.922zm2.977 1.844c-.34 0-.598.242-.79.578-.19.336-.332.774-.457 1.211-.12.434-.23.867-.351 1.188-.063.16-.125.289-.192.375-.066.086-.128.12-.195.12-.152 0-.289-.1-.418-.28-.129-.176-.246-.422-.355-.669-.106-.246-.207-.496-.317-.687a1.101 1.101 0 0 0-.172-.242.325.325 0 0 0-.226-.106c-.223 0-.422.18-.606.442-.18.265-.343.625-.484 1.031-.281.812-.469 1.809-.469 2.566 0 .313.254.567.567.567h5.953a.567.567 0 0 0 .566-.567c.02-.98-.168-2.347-.515-3.476-.172-.567-.387-1.07-.641-1.442-.254-.367-.555-.609-.898-.609zm0 .14c.277 0 .543.2.78.551.243.352.454.844.626 1.403.344 1.113.527 2.472.508 3.433a.422.422 0 0 1-.426.426H8.93a.424.424 0 0 1-.426-.426c0-.734.187-1.722.46-2.52.141-.398.302-.75.47-1 .168-.245.343-.378.488-.378.039 0 .078.02.129.066.047.047.097.121.148.211.102.176.203.426.309.676.11.246.226.5.37.695.142.192.317.336.532.336.121 0 .223-.07.305-.175.082-.106.148-.247.21-.41.13-.333.235-.766.36-1.2.125-.433.262-.863.442-1.18.183-.316.39-.507.668-.507zm0 0" fill="#212121"/></svg>
